X: 1830
T: Rita Baker's 1st Set, Fig 2
B: australian traditional tunes wiki
M:6/8
L:1/8
R: Jig
Q: 3/8=100
K:G
V:1 
g|:"G"g2f"D"f2e|"D7"e2B"G"B2d|dcB"D"B2e|"D7"e2B"G"B2g|
g2f"D"f2e|"D7"e2B"G"B2d|dcB"D7"A2F|"G"G3-G2D:|
|:"G"G2G GBc|d2e dBG|"D7"A2G FED|A2G FED|
"G"G2G GBc|d2e dBG|"D7"A2G FED|"G"G3-G2z:|
% abcbook-tune_id 6342d53a4e0b1f68096b586a


% abcbook-boost 0
% abcbook-tablature 
% abcbook-transpose 
% abcbook-lastupdated 1665324386558
% abcbook-soundfonts 
% abcbook-repeats 1
% NFF Book 2009

